src/assets/img/providers/yggdrasil-g.svg

<svg width="118" height="28" viewBox="0 0 118 28" fill="none" xmlns="http://www.w3.org/2000/svg">
<path fill-rule="evenodd" clip-rule="evenodd" d="M28.433 18.1095C28.7655 17.0401 28.9679 15.9347 29.036 14.817C27.3022 14.7552 25.5889 14.4211 23.9589 13.827C25.3846 12.6423 27.0242 11.742 28.789 11.1748C28.5706 10.0864 28.225 9.02749 27.7591 8.01988C25.1295 8.86805 22.7328 10.3153 20.7579 12.2476C19.5744 11.4948 18.4906 10.5958 17.532 9.57184C20.7376 9.01245 23.6657 7.40172 25.8543 4.99376C25.1474 4.13766 24.3413 3.36853 23.453 2.70254C22.1786 4.12195 20.5677 5.19809 18.7685 5.83196C19.4288 4.23089 19.876 2.55008 20.0989 0.832604C19.0552 0.425828 17.9662 0.146279 16.8556 0C16.6338 2.11402 16.0052 4.16518 15.0043 6.04043C14.0043 4.16646 13.3759 2.11684 13.1537 0.00435593C12.0434 0.151773 10.9547 0.430857 9.9104 0.835716C10.1329 2.55267 10.5802 4.2329 11.2408 5.83321C9.44004 5.19956 7.82805 4.12219 6.55384 2.70067C5.66617 3.36824 4.86128 4.13929 4.15622 4.99749C6.34427 7.40458 9.27148 9.01466 12.476 9.5737C11.5181 10.5978 10.4346 11.4968 9.25141 12.2495C7.27647 10.3172 4.87978 8.86992 2.25019 8.02175C1.78166 9.02843 1.43468 10.0873 1.21659 11.1761C2.98294 11.7429 4.6241 12.6434 6.05104 13.8288C4.4206 14.4228 2.70684 14.7565 0.972656 14.8176C1.04301 15.9353 1.24626 17.0405 1.57813 18.1101C6.71155 17.8023 11.525 15.5138 15.0043 11.7268C18.4844 15.5141 23.2988 17.8024 28.433 18.1095ZM16.6621 23.1829V27.901C15.56 28.0322 14.4457 28.033 13.3435 27.9034V23.1829L8.57748 16.9688C9.60457 16.517 10.5928 15.9815 11.532 15.3677L15.0031 19.8935L18.4741 15.3677C19.4135 15.9813 20.4017 16.5168 21.4287 16.9688L16.6621 23.1829ZM112.356 8.05998H110.154V18.1128H117.027V16.1023H112.356V8.05998ZM108.317 18.1128H106.115V8.05998H108.317V18.1128ZM100.779 18.1894C99.2136 18.1949 97.7013 17.6223 96.532 16.5814H96.5333L97.8351 15.0158C98.6496 15.7716 99.7112 16.2055 100.822 16.2367C101.724 16.2367 102.267 15.8776 102.267 15.2889V15.2603C102.267 14.7003 101.923 14.4134 100.25 13.9828C98.2346 13.4651 96.9328 12.9056 96.9328 10.9094V10.8808C96.9328 9.05686 98.3914 7.85027 100.437 7.85027C101.787 7.82883 103.103 8.28106 104.154 9.12842L103.011 10.7943C102.264 10.2077 101.356 9.86221 100.408 9.80359C99.5644 9.80359 99.1213 10.1906 99.1213 10.6798V10.7084C99.1213 11.368 99.5513 11.5839 101.281 12.0288C103.31 12.5609 104.454 13.2927 104.454 15.045V15.0736C104.454 17.0693 102.938 18.1894 100.779 18.1894ZM91.7922 8.02451L96.0827 18.1489L93.7797 18.1495L92.8544 15.8695H89.5153L90.2975 13.9249H92.0647L90.748 10.6816L87.7169 18.1489H85.4711L89.7617 8.02451H91.7922ZM75.0486 13.0575C75.0486 10.2286 72.875 8.05998 69.7288 8.05998H66.2895V18.1122H69.7288C72.875 18.1122 75.0486 15.915 75.0486 13.0861V13.0575ZM72.5608 11.9048C72.7047 12.2812 72.7681 12.6836 72.7468 13.0861V13.1153C72.7675 13.5163 72.7034 13.9171 72.5589 14.2917C72.4143 14.6663 72.1925 15.0062 71.9079 15.2893C71.6232 15.5725 71.2821 15.7925 70.9067 15.935C70.5314 16.0775 70.1302 16.1394 69.7294 16.1166H68.4911V10.0556H69.7294C70.1319 10.0361 70.5341 10.1012 70.9099 10.2468C71.2857 10.3923 71.6268 10.6151 71.9112 10.9007C72.1955 11.1863 72.4168 11.5283 72.5608 11.9048ZM61.3716 14.6088V12.8789L64.5402 12.8783V16.6903C63.3553 17.7222 61.8359 18.2886 60.2646 18.284C59.5725 18.3178 58.8809 18.208 58.2333 17.9614C57.5857 17.7148 56.9962 17.3369 56.5018 16.8513C56.0075 16.3657 55.619 15.783 55.3609 15.1399C55.1028 14.4969 54.9806 13.8073 55.002 13.1147V13.0861C54.9952 12.3974 55.1267 11.7143 55.3886 11.0773C55.6506 10.4403 56.0376 9.86231 56.527 9.37758C57.0163 8.89285 57.5979 8.51123 58.2373 8.2553C58.8767 7.99937 59.561 7.87434 60.2497 7.88761C61.6909 7.81147 63.1041 8.30674 64.1824 9.26595L62.7954 10.9461C62.0924 10.2734 61.1515 9.90687 60.1787 9.9268C59.3833 9.96316 58.6345 10.3128 58.096 10.8994C57.5574 11.486 57.2729 12.2618 57.3044 13.0575V13.0861C57.2794 13.498 57.3394 13.9107 57.4808 14.2984C57.6222 14.6861 57.8419 15.0405 58.1263 15.3396C58.4107 15.6387 58.7536 15.876 59.1337 16.0368C59.5138 16.1975 59.9229 16.2783 60.3355 16.274C61.0729 16.2965 61.7986 16.0855 62.409 15.671V14.6088H61.3716ZM50.376 14.6088V12.8789L53.5446 12.8783V16.6903C52.3596 17.7221 50.8402 18.2884 49.269 18.284C48.5769 18.3178 47.8853 18.208 47.2377 17.9614C46.5901 17.7148 46.0006 17.3369 45.5062 16.8513C45.0119 16.3657 44.6234 15.783 44.3653 15.1399C44.1072 14.4969 43.985 13.8073 44.0064 13.1147V13.0861C43.9995 12.3973 44.1309 11.7142 44.3929 11.0772C44.6548 10.4401 45.0418 9.86213 45.5312 9.37739C46.0205 8.89264 46.6021 8.51102 47.2416 8.25512C47.8811 7.99922 48.5654 7.87425 49.2541 7.88761C50.6953 7.81154 52.1084 8.3068 53.1868 9.26595L51.7998 10.9461C51.0967 10.2736 50.1558 9.90714 49.1831 9.9268C48.3876 9.96316 47.6389 10.3128 47.1004 10.8994C46.5618 11.486 46.2773 12.2618 46.3088 13.0575V13.0861C46.2838 13.498 46.3438 13.9107 46.4852 14.2984C46.6266 14.6861 46.8463 15.0405 47.1307 15.3396C47.4151 15.6387 47.758 15.876 48.1381 16.0368C48.5182 16.1975 48.9273 16.2783 49.3399 16.274C50.0773 16.2965 50.803 16.0855 51.4134 15.671V14.6088H50.376ZM40.3991 18.1122H38.1969V14.9118L34.3499 8.05936H36.9243L39.312 12.5323L41.7432 8.05936H44.2454L40.3991 14.8689V18.1122ZM83.9379 13.326C83.5503 13.8889 82.9886 14.3089 82.3392 14.5217L84.786 18.1128H82.2116L80.0666 14.8963H79.4817V12.943H80.5651C81.6379 12.943 82.2533 12.368 82.2533 11.5211V11.4924C82.2533 10.5453 81.5956 10.0562 80.5228 10.0562H78.6659V18.1128H76.4637V8.05998H80.7088C81.2386 8.02674 81.7697 8.09985 82.2708 8.27501C82.7719 8.45017 83.2329 8.72383 83.6267 9.07989C83.9154 9.38642 84.1401 9.74754 84.2875 10.1421C84.4348 10.5366 84.5019 10.9565 84.4848 11.3773V11.406C84.5177 12.0886 84.3255 12.7631 83.9379 13.326Z" fill="#00AB55"/>
</svg>

<svg xmlns="http://www.w3.org/2000/svg" width="118" height="28" fill="none"><path fill="#00AB55" fill-rule="evenodd" d="M28.433 18.11c.332-1.07.535-2.175.603-3.293a16.548 16.548 0 0 1-5.077-.99 14.5 14.5 0 0 1 4.83-2.652 14.15 14.15 0 0 0-1.03-3.155 17.843 17.843 0 0 0-7.001 4.228 16.687 16.687 0 0 1-3.226-2.676 14.65 14.65 0 0 0 8.322-4.578 14.023 14.023 0 0 0-2.401-2.291 11.375 11.375 0 0 1-4.684 3.129 19.795 19.795 0 0 0 1.33-5A13.947 13.947 0 0 0 16.856 0a16.48 16.48 0 0 1-1.852 6.04 16.484 16.484 0 0 1-1.85-6.036A14.11 14.11 0 0 0 9.91.836a19.75 19.75 0 0 0 1.33 4.997 11.357 11.357 0 0 1-4.686-3.132 13.97 13.97 0 0 0-2.398 2.296 14.645 14.645 0 0 0 8.32 4.577 16.659 16.659 0 0 1-3.225 2.675 17.843 17.843 0 0 0-7-4.227 13.985 13.985 0 0 0-1.034 3.154A14.498 14.498 0 0 1 6.05 13.83c-1.63.594-3.344.928-5.078.989a14.1 14.1 0 0 0 .605 3.292 19.845 19.845 0 0 0 13.426-6.383 19.846 19.846 0 0 0 13.429 6.383Zm-11.77 5.073V27.9a14.125 14.125 0 0 1-3.32.002v-4.72l-4.766-6.214a20.458 20.458 0 0 0 2.955-1.601l3.471 4.525 3.471-4.525c.94.613 1.928 1.149 2.955 1.6l-4.767 6.215ZM112.355 8.06h-2.202v10.053h6.873v-2.01h-4.671V8.06Zm-4.039 10.053h-2.202V8.06h2.202v10.053Zm-7.538.076a6.354 6.354 0 0 1-4.247-1.608h.001l1.302-1.565a4.58 4.58 0 0 0 2.987 1.22c.902 0 1.445-.358 1.445-.947v-.029c0-.56-.344-.847-2.017-1.277-2.015-.518-3.317-1.077-3.317-3.074v-.028c0-1.824 1.458-3.03 3.504-3.03a5.777 5.777 0 0 1 3.717 1.277l-1.143 1.666a4.683 4.683 0 0 0-2.603-.99c-.844 0-1.287.387-1.287.876v.028c0 .66.43.876 2.16 1.32 2.029.533 3.173 1.265 3.173 3.017v.029c0 1.995-1.516 3.115-3.675 3.115ZM91.792 8.025l4.29 10.124H93.78l-.926-2.28h-3.339l.782-1.944h1.768l-1.317-3.243-3.031 7.467H85.47l4.29-10.124h2.031ZM75.05 13.057c0-2.828-2.174-4.997-5.32-4.997h-3.44v10.052h3.44c3.146 0 5.32-2.197 5.32-5.026v-.029Zm-2.488-1.152c.144.376.207.779.186 1.181v.03a2.86 2.86 0 0 1-3.018 3h-1.238v-6.06h1.238a2.882 2.882 0 0 1 2.832 1.849Zm-11.19 2.704v-1.73h3.17v3.811a6.481 6.481 0 0 1-4.276 1.594 5.02 5.02 0 0 1-5.263-5.17v-.028a5.15 5.15 0 0 1 5.248-5.198 5.482 5.482 0 0 1 3.932 1.378l-1.387 1.68a3.676 3.676 0 0 0-2.616-1.02 3.014 3.014 0 0 0-2.875 3.131v.03a3.007 3.007 0 0 0 3.032 3.187 3.5 3.5 0 0 0 2.073-.603v-1.062h-1.037Zm-10.995 0v-1.73h3.169v3.811a6.483 6.483 0 0 1-4.276 1.594 5.02 5.02 0 0 1-5.263-5.17v-.028a5.146 5.146 0 0 1 5.248-5.198 5.483 5.483 0 0 1 3.933 1.378l-1.387 1.68a3.678 3.678 0 0 0-2.617-1.02 3.014 3.014 0 0 0-2.874 3.131v.03a3.007 3.007 0 0 0 3.03 3.187 3.5 3.5 0 0 0 2.074-.603v-1.062h-1.037Zm-9.977 3.503h-2.202v-3.2L34.35 8.059h2.574l2.388 4.473 2.431-4.473h2.502L40.4 14.87v3.243Zm43.539-4.786a3.12 3.12 0 0 1-1.599 1.196l2.447 3.59h-2.574l-2.145-3.216h-.585v-1.953h1.083c1.073 0 1.688-.575 1.688-1.422v-.029c0-.947-.657-1.436-1.73-1.436h-1.857v8.057h-2.202V8.06h4.245a3.979 3.979 0 0 1 2.918 1.02 3.165 3.165 0 0 1 .858 2.297v.029a3.12 3.12 0 0 1-.547 1.92Z" clip-rule="evenodd"/></svg>
